Newaita-dark/apps/64/bittorrent-sync.svg

<svg height="64" viewBox="0 0 64 64" width="64" xmlns="http://www.w3.org/2000/svg" xmlns:xlink="http://www.w3.org/1999/xlink"><linearGradient id="a"><stop offset="0" stop-opacity=".313726"/><stop offset=".222222" stop-opacity=".27451"/><stop offset="1" stop-opacity="0"/></linearGradient><radialGradient id="b" cx="450.908936" cy="189.579361" gradientTransform="matrix(.00000035 -.156265 -.281277 -.0000002 89.046304 127.190659)" gradientUnits="userSpaceOnUse" r="21.166656" xlink:href="#a"/><radialGradient id="c" cx="450.908936" cy="189.579361" gradientTransform="matrix(-.00000035 .156265 .281277 .0000002 -25.540237 -15.054964)" gradientUnits="userSpaceOnUse" r="21.166656" xlink:href="#a"/><radialGradient id="d" cx="450.908936" cy="189.579361" gradientTransform="matrix(-.00000035 -.156265 .281277 -.0000002 -25.540237 127.190659)" gradientUnits="userSpaceOnUse" r="21.166656" xlink:href="#a"/><radialGradient id="e" cx="450.908936" cy="189.579361" gradientTransform="matrix(.00000035 .156265 -.281277 .0000002 89.0463 -15.054965)" gradientUnits="userSpaceOnUse" r="21.166656" xlink:href="#a"/><linearGradient id="f" gradientTransform="matrix(.0267201 0 0 .125012 24.930772 26.877567)" gradientUnits="userSpaceOnUse" x1="255.323059" x2="255.323044" y1="233.5" y2="254.666656"><stop offset="0" stop-opacity=".27451"/><stop offset="1" stop-opacity="0"/></linearGradient><linearGradient id="g" gradientUnits="userSpaceOnUse" x1="254" x2="254" y1="-168.666672" y2="233.5"><stop offset="0" stop-color="#7986cb"/><stop offset="1" stop-color="#5c6bc0"/></linearGradient><linearGradient id="h" gradientUnits="userSpaceOnUse" x1="31.753056" x2="31.753056" y1="56.06789790428" y2="5.792224912"><stop offset="0" stop-color="#26c6da"/><stop offset="1" stop-color="#4dd0e1"/></linearGradient><path d="m36.382812 56.066406h5.292969v-2.644531h-5.292969zm0 0" fill="url(#b)"/><path d="m27.121094 56.066406h-5.289063v2.648438h5.289063zm0 0" fill="url(#c)"/><path d="m27.121094 56.066406h-5.289063v-2.644531h5.289063zm0 0" fill="url(#d)"/><path d="m36.382812 56.066406h5.292969v2.648438h-5.292969zm0 0" fill="url(#e)"/><path d="m27.121094 55.40625h9.261718v3.308594h-9.261718zm0 0" fill="url(#f)"/><path d="m254.006994-168.660675c111.051895 0 201.074548 90.022653 201.074548 201.074548s-90.022653 201.074548-201.074548 201.074548c-111.051896 0-201.105796-90.022653-201.105796-201.074548s90.0539-201.074548 201.105796-201.074548zm0 0" fill="url(#g)" stroke="#333" stroke-linecap="round" stroke-width="3" transform="matrix(.125012 0 0 .125012 0 26.877566)"/><path d="m31.753906 56.066406c-13.925781 0-25.140625-11.210937-25.140625-25.136718 0-.082032.003907-.164063.003907-.246094.128906 13.8125 11.292968 24.890625 25.136718 24.890625s25.003906-11.078125 25.136719-24.890625v.246094c0 13.925781-11.210937 25.136718-25.136719 25.136718zm0 0" fill-opacity=".196078"/><path d="m31.753906 5.792969c-13.925781 0-25.140625 11.210937-25.140625 25.136719 0 .082031.003907.164062.003907.246093.128906-13.8125 11.292968-24.890625 25.136718-24.890625s25.003906 11.078125 25.136719 24.890625c0-.082031 0-.164062 0-.246093 0-13.925782-11.210937-25.136719-25.136719-25.136719zm0 0" fill="#fff" fill-opacity=".392157"/><path d="m31.753906 5.605469c-14.027344 0-25.328125 11.296875-25.328125 25.324219 0 14.027343 11.300781 25.324218 25.328125 25.324218s25.324219-11.296875 25.324219-25.324218c0-14.027344-11.296875-25.324219-25.324219-25.324219zm0 .375c13.824219 0 24.949219 11.125 24.949219 24.949219 0 13.824218-11.125 24.949218-24.949219 24.949218-13.828125 0-24.953125-11.125-24.953125-24.949218 0-13.824219 11.125-24.949219 24.953125-24.949219zm0 0" fill="#212121"/><path d="m31.679688 12.554688c-3.121094.015624-6.28125.820312-9.1875 2.5-7.292969 4.210937-10.636719 12.5625-8.765626 20.335937.332032 2.101563 4.429688 1.261719 3.628907-2.09375-.886719-5.757813 1.757812-11.710937 7.121093-14.804687 5.363282-3.097657 11.839844-2.414063 16.378907 1.234374 2.507812 2.371094 5.285156-.757812 3.632812-2.097656-3.488281-3.3125-8.097656-5.09375-12.808593-5.074218zm16.683593 13.097656c-1.230469-.027344-2.726562 1.089844-2.214843 3.242187.890624 5.757813-1.753907 11.707031-7.117188 14.804688-5.367188 3.097656-11.839844 2.410156-16.382812-1.238281-2.507813-2.371094-5.28125.757812-3.632813 2.097656 5.796875 5.507812 14.707031 6.789062 22 2.578125 7.292969-4.210938 10.636719-12.566407 8.765625-20.339844-.121094-.753906-.726562-1.128906-1.417969-1.144531zm0 0" fill="url(#h)"/><path d="m31.679688 12.554688c-3.121094.015624-6.28125.820312-9.1875 2.5-6.101563 3.523437-9.441407 9.945312-9.273438 16.503906.164062-6.222656 3.464844-12.203125 9.273438-15.554688 2.90625-1.679687 6.066406-2.484375 9.1875-2.5 4.710937-.019531 9.320312 1.761719 12.808593 5.074219.199219.164063.335938.351563.414063.554687.179687-.53125.085937-1.097656-.414063-1.503906-3.488281-3.3125-8.097656-5.09375-12.808593-5.074218zm16.628906 13.097656c-1.152344.007812-2.503906 1.003906-2.226563 2.898437.214844-1.304687 1.328125-1.96875 2.28125-1.949219.691407.015626 1.296875.390626 1.417969 1.144532.304688 1.269531.472656 2.554687.503906 3.832031.042969-1.589844-.125-3.199219-.503906-4.78125-.121094-.753906-.726562-1.128906-1.417969-1.144531-.019531 0-.035156 0-.054687 0zm-31.113282 5.898437c-.03125.894531.023438 1.796875.160157 2.691407.03125.121093.050781.234374.066406.347656.0625-.378906.050781-.808594-.066406-1.292969-.089844-.582031-.140625-1.164063-.160157-1.746094zm29.113282.035157c-.160156 4.847656-2.75 9.496093-7.277344 12.113281-5.367188 3.097656-11.839844 2.410156-16.382812-1.238281-2.203126-2.082032-4.613282.082031-4.042969 1.542968.414062-1.222656 2.292969-2.25 4.042969-.59375 4.542968 3.648438 11.015624 4.332032 16.382812 1.238282 4.820312-2.785157 7.445312-7.878907 7.277344-13.0625zm0 0" fill="#fff" fill-opacity=".392157"/><path d="m31.628906 16.574219c-2.429687.023437-4.890625.65625-7.152344 1.960937-4.882812 2.820313-7.515624 8.007813-7.273437 13.257813.21875-4.785157 2.800781-9.351563 7.273437-11.933594 5.363282-3.097656 11.839844-2.414063 16.378907 1.234375 2.292969 2.167969 4.808593-.257812 3.964843-1.714844-.542968 1.128906-2.3125 1.957032-3.964843.394532-2.625-2.109376-5.894531-3.230469-9.226563-3.199219zm14.488282 12.21875c-.097657.417969-.101563.910156.03125 1.46875.082031.515625.128906 1.03125.15625 1.546875.042968-.953125-.007813-1.914063-.15625-2.871094-.011719-.046875-.019532-.09375-.03125-.144531zm-32.890626 2.996093c-.058593 1.65625.101563 3.324219.5 4.972657.328126 2.066406 4.3125 1.28125 3.660157-1.953125-.492188 2.085937-3.382813 2.378906-3.660157.628906-.292968-1.207031-.457031-2.429688-.5-3.648438zm37.054688.023438c-.222656 6.152344-3.519531 12.050781-9.265625 15.367188-7.292969 4.210937-16.203125 2.929687-22-2.578126-.140625-.113281-.25-.242187-.328125-.378906-.28125.582032-.234375 1.246094.328125 1.703125 5.796875 5.507813 14.707031 6.789063 22 2.578125 6.160156-3.558594 9.5-10.070312 9.265625-16.691406zm0 0" fill-opacity=".235294"/><path d="m957.782602 379.570072c-94.361072.472396-189.903135 24.800783-277.768764 75.583337-220.490767 127.310684-321.583481 379.80627-265.014077 614.82321 10.038412 63.537243 133.924226 38.145965 109.713938-63.301045-26.808464-174.077874 53.144534-354.060696 215.294413-447.595076 162.149878-93.652479 357.957961-72.98516 495.188958 37.319273 75.819535 71.686071 159.787899-22.911199 109.832037-63.419144-105.462375-100.147922-244.819153-154.00105-387.246505-153.410555zm504.400678 395.985828c-37.201174-.826693-82.433077 32.949611-66.962113 98.022141 26.926564 174.077873-53.026435 353.942596-215.176313 447.595075-162.267978 93.652479-357.957962 72.867061-495.307058-37.437371-75.819535-71.686072-159.6698 22.911199-109.832037 63.419144 175.258864 166.51954 444.642602 205.256 665.133369 77.945316 220.490766-127.310684 321.58348-379.924369 265.014076-614.941308-3.661068-22.7931-21.966407-34.130601-42.869924-34.602997zm0 0" fill="none" stroke="#212121" stroke-linecap="round" stroke-linejoin="round" stroke-width="11.338583" transform="scale(.0330761)"/></svg>

<?xml version="1.0" encoding="UTF-8"?>
<svg xmlns="http://www.w3.org/2000/svg" xmlns:xlink="http://www.w3.org/1999/xlink" width="64px" height="64px" viewBox="0 0 64 64" version="1.1">
<defs>
<radialGradient id="radial0" gradientUnits="userSpaceOnUse" cx="450.908936" cy="189.579361" fx="450.908936" fy="189.579361" r="21.166656" gradientTransform="matrix(0.000000348341,-0.156265,-0.281277,-0.000000203077,89.046304,127.190659)">
<stop offset="0" style="stop-color:rgb(0%,0%,0%);stop-opacity:0.313726;"/>
<stop offset="0.222222" style="stop-color:rgb(0%,0%,0%);stop-opacity:0.27451;"/>
<stop offset="1" style="stop-color:rgb(0%,0%,0%);stop-opacity:0;"/>
</radialGradient>
<radialGradient id="radial1" gradientUnits="userSpaceOnUse" cx="450.908936" cy="189.579361" fx="450.908936" fy="189.579361" r="21.166656" gradientTransform="matrix(-0.000000348341,0.156265,0.281277,0.000000203077,-25.540237,-15.054964)">
<stop offset="0" style="stop-color:rgb(0%,0%,0%);stop-opacity:0.313726;"/>
<stop offset="0.222222" style="stop-color:rgb(0%,0%,0%);stop-opacity:0.27451;"/>
<stop offset="1" style="stop-color:rgb(0%,0%,0%);stop-opacity:0;"/>
</radialGradient>
<radialGradient id="radial2" gradientUnits="userSpaceOnUse" cx="450.908936" cy="189.579361" fx="450.908936" fy="189.579361" r="21.166656" gradientTransform="matrix(-0.000000348341,-0.156265,0.281277,-0.000000203077,-25.540237,127.190659)">
<stop offset="0" style="stop-color:rgb(0%,0%,0%);stop-opacity:0.313726;"/>
<stop offset="0.222222" style="stop-color:rgb(0%,0%,0%);stop-opacity:0.27451;"/>
<stop offset="1" style="stop-color:rgb(0%,0%,0%);stop-opacity:0;"/>
</radialGradient>
<radialGradient id="radial3" gradientUnits="userSpaceOnUse" cx="450.908936" cy="189.579361" fx="450.908936" fy="189.579361" r="21.166656" gradientTransform="matrix(0.000000348341,0.156265,-0.281277,0.000000203077,89.0463,-15.054965)">
<stop offset="0" style="stop-color:rgb(0%,0%,0%);stop-opacity:0.313726;"/>
<stop offset="0.222222" style="stop-color:rgb(0%,0%,0%);stop-opacity:0.27451;"/>
<stop offset="1" style="stop-color:rgb(0%,0%,0%);stop-opacity:0;"/>
</radialGradient>
<linearGradient id="linear0" gradientUnits="userSpaceOnUse" x1="255.323059" y1="233.5" x2="255.323044" y2="254.666656" gradientTransform="matrix(0.0267201,0,0,0.125012,24.930772,26.877567)">
<stop offset="0" style="stop-color:rgb(0%,0%,0%);stop-opacity:0.27451;"/>
<stop offset="1" style="stop-color:rgb(0%,0%,0%);stop-opacity:0;"/>
</linearGradient>
<linearGradient id="linear1" gradientUnits="userSpaceOnUse" x1="254" y1="-168.666672" x2="254" y2="233.5" >
<stop offset="0" style="stop-color:rgb(47.450981%,52.549022%,79.607844%);stop-opacity:1;"/>
<stop offset="1" style="stop-color:rgb(36.078432%,41.960785%,75.294119%);stop-opacity:1;"/>
</linearGradient>
<linearGradient id="linear2" gradientUnits="userSpaceOnUse" x1="960" y1="1695.118164" x2="960" y2="175.118134" gradientTransform="matrix(0.0330761,0,0,0.0330761,0,0)">
<stop offset="0" style="stop-color:rgb(14.901961%,77.64706%,85.490197%);stop-opacity:1;"/>
<stop offset="1" style="stop-color:rgb(30.19608%,81.568629%,88.235295%);stop-opacity:1;"/>
</linearGradient>
</defs>
<g id="surface1">
<path style=" stroke:none;fill-rule:nonzero;fill:url(#radial0);" d="M 36.382812 56.066406 L 41.675781 56.066406 L 41.675781 53.421875 L 36.382812 53.421875 Z M 36.382812 56.066406 "/>
<path style=" stroke:none;fill-rule:nonzero;fill:url(#radial1);" d="M 27.121094 56.066406 L 21.832031 56.066406 L 21.832031 58.714844 L 27.121094 58.714844 Z M 27.121094 56.066406 "/>
<path style=" stroke:none;fill-rule:nonzero;fill:url(#radial2);" d="M 27.121094 56.066406 L 21.832031 56.066406 L 21.832031 53.421875 L 27.121094 53.421875 Z M 27.121094 56.066406 "/>
<path style=" stroke:none;fill-rule:nonzero;fill:url(#radial3);" d="M 36.382812 56.066406 L 41.675781 56.066406 L 41.675781 58.714844 L 36.382812 58.714844 Z M 36.382812 56.066406 "/>
<path style=" stroke:none;fill-rule:nonzero;fill:url(#linear0);" d="M 27.121094 55.40625 L 36.382812 55.40625 L 36.382812 58.714844 L 27.121094 58.714844 Z M 27.121094 55.40625 "/>
<path style="fill-rule:nonzero;fill:url(#linear1);stroke-width:3;stroke-linecap:round;stroke-linejoin:miter;stroke:rgb(20%,20%,20%);stroke-opacity:1;stroke-miterlimit:4;" d="M 254.006994 -168.660675 C 365.058889 -168.660675 455.081542 -78.638022 455.081542 32.413873 C 455.081542 143.465768 365.058889 233.488421 254.006994 233.488421 C 142.955098 233.488421 52.901198 143.465768 52.901198 32.413873 C 52.901198 -78.638022 142.955098 -168.660675 254.006994 -168.660675 Z M 254.006994 -168.660675 " transform="matrix(0.125012,0,0,0.125012,0,26.877566)"/>
<path style=" stroke:none;fill-rule:nonzero;fill:rgb(0%,0%,0%);fill-opacity:0.196078;" d="M 31.753906 56.066406 C 17.828125 56.066406 6.613281 44.855469 6.613281 30.929688 C 6.613281 30.847656 6.617188 30.765625 6.617188 30.683594 C 6.746094 44.496094 17.910156 55.574219 31.753906 55.574219 C 45.597656 55.574219 56.757812 44.496094 56.890625 30.683594 C 56.890625 30.765625 56.890625 30.847656 56.890625 30.929688 C 56.890625 44.855469 45.679688 56.066406 31.753906 56.066406 Z M 31.753906 56.066406 "/>
<path style=" stroke:none;fill-rule:nonzero;fill:rgb(100%,100%,100%);fill-opacity:0.392157;" d="M 31.753906 5.792969 C 17.828125 5.792969 6.613281 17.003906 6.613281 30.929688 C 6.613281 31.011719 6.617188 31.09375 6.617188 31.175781 C 6.746094 17.363281 17.910156 6.285156 31.753906 6.285156 C 45.597656 6.285156 56.757812 17.363281 56.890625 31.175781 C 56.890625 31.09375 56.890625 31.011719 56.890625 30.929688 C 56.890625 17.003906 45.679688 5.792969 31.753906 5.792969 Z M 31.753906 5.792969 "/>
<path style=" stroke:none;fill-rule:nonzero;fill:rgb(12.941177%,12.941177%,12.941177%);fill-opacity:1;" d="M 31.753906 5.605469 C 17.726562 5.605469 6.425781 16.902344 6.425781 30.929688 C 6.425781 44.957031 17.726562 56.253906 31.753906 56.253906 C 45.78125 56.253906 57.078125 44.957031 57.078125 30.929688 C 57.078125 16.902344 45.78125 5.605469 31.753906 5.605469 Z M 31.753906 5.980469 C 45.578125 5.980469 56.703125 17.105469 56.703125 30.929688 C 56.703125 44.753906 45.578125 55.878906 31.753906 55.878906 C 17.925781 55.878906 6.800781 44.753906 6.800781 30.929688 C 6.800781 17.105469 17.925781 5.980469 31.753906 5.980469 Z M 31.753906 5.980469 "/>
<path style=" stroke:none;fill-rule:nonzero;fill:url(#linear2);" d="M 31.679688 12.554688 C 28.558594 12.570312 25.398438 13.375 22.492188 15.054688 C 15.199219 19.265625 11.855469 27.617188 13.726562 35.390625 C 14.058594 37.492188 18.15625 36.652344 17.355469 33.296875 C 16.46875 27.539062 19.113281 21.585938 24.476562 18.492188 C 29.839844 15.394531 36.316406 16.078125 40.855469 19.726562 C 43.363281 22.097656 46.140625 18.96875 44.488281 17.628906 C 41 14.316406 36.390625 12.535156 31.679688 12.554688 Z M 48.363281 25.652344 C 47.132812 25.625 45.636719 26.742188 46.148438 28.894531 C 47.039062 34.652344 44.394531 40.601562 39.03125 43.699219 C 33.664062 46.796875 27.191406 46.109375 22.648438 42.460938 C 20.140625 40.089844 17.367188 43.21875 19.015625 44.558594 C 24.8125 50.066406 33.722656 51.347656 41.015625 47.136719 C 48.308594 42.925781 51.652344 34.570312 49.78125 26.796875 C 49.660156 26.042969 49.054688 25.667969 48.363281 25.652344 Z M 48.363281 25.652344 "/>
<path style=" stroke:none;fill-rule:nonzero;fill:rgb(100%,100%,100%);fill-opacity:0.392157;" d="M 31.679688 12.554688 C 28.558594 12.570312 25.398438 13.375 22.492188 15.054688 C 16.390625 18.578125 13.050781 25 13.21875 31.558594 C 13.382812 25.335938 16.683594 19.355469 22.492188 16.003906 C 25.398438 14.324219 28.558594 13.519531 31.679688 13.503906 C 36.390625 13.484375 41 15.265625 44.488281 18.578125 C 44.6875 18.742188 44.824219 18.929688 44.902344 19.132812 C 45.082031 18.601562 44.988281 18.035156 44.488281 17.628906 C 41 14.316406 36.390625 12.535156 31.679688 12.554688 Z M 48.308594 25.652344 C 47.15625 25.660156 45.804688 26.65625 46.082031 28.550781 C 46.296875 27.246094 47.410156 26.582031 48.363281 26.601562 C 49.054688 26.617188 49.660156 26.992188 49.78125 27.746094 C 50.085938 29.015625 50.253906 30.300781 50.285156 31.578125 C 50.328125 29.988281 50.160156 28.378906 49.78125 26.796875 C 49.660156 26.042969 49.054688 25.667969 48.363281 25.652344 C 48.34375 25.652344 48.328125 25.652344 48.308594 25.652344 Z M 17.195312 31.550781 C 17.164062 32.445312 17.21875 33.347656 17.355469 34.242188 C 17.386719 34.363281 17.40625 34.476562 17.421875 34.589844 C 17.484375 34.210938 17.472656 33.78125 17.355469 33.296875 C 17.265625 32.714844 17.214844 32.132812 17.195312 31.550781 Z M 46.308594 31.585938 C 46.148438 36.433594 43.558594 41.082031 39.03125 43.699219 C 33.664062 46.796875 27.191406 46.109375 22.648438 42.460938 C 20.445312 40.378906 18.035156 42.542969 18.605469 44.003906 C 19.019531 42.78125 20.898438 41.753906 22.648438 43.410156 C 27.191406 47.058594 33.664062 47.742188 39.03125 44.648438 C 43.851562 41.863281 46.476562 36.769531 46.308594 31.585938 Z M 46.308594 31.585938 "/>
<path style=" stroke:none;fill-rule:nonzero;fill:rgb(0%,0%,0%);fill-opacity:0.235294;" d="M 31.628906 16.574219 C 29.199219 16.597656 26.738281 17.230469 24.476562 18.535156 C 19.59375 21.355469 16.960938 26.542969 17.203125 31.792969 C 17.421875 27.007812 20.003906 22.441406 24.476562 19.859375 C 29.839844 16.761719 36.316406 17.445312 40.855469 21.09375 C 43.148438 23.261719 45.664062 20.835938 44.820312 19.378906 C 44.277344 20.507812 42.507812 21.335938 40.855469 19.773438 C 38.230469 17.664062 34.960938 16.542969 31.628906 16.574219 Z M 46.117188 28.792969 C 46.019531 29.210938 46.015625 29.703125 46.148438 30.261719 C 46.230469 30.777344 46.277344 31.292969 46.304688 31.808594 C 46.347656 30.855469 46.296875 29.894531 46.148438 28.9375 C 46.136719 28.890625 46.128906 28.84375 46.117188 28.792969 Z M 13.226562 31.789062 C 13.167969 33.445312 13.328125 35.113281 13.726562 36.761719 C 14.054688 38.828125 18.039062 38.042969 17.386719 34.808594 C 16.894531 36.894531 14.003906 37.1875 13.726562 35.4375 C 13.433594 34.230469 13.269531 33.007812 13.226562 31.789062 Z M 50.28125 31.8125 C 50.058594 37.964844 46.761719 43.863281 41.015625 47.179688 C 33.722656 51.390625 24.8125 50.109375 19.015625 44.601562 C 18.875 44.488281 18.765625 44.359375 18.6875 44.222656 C 18.40625 44.804688 18.453125 45.46875 19.015625 45.925781 C 24.8125 51.433594 33.722656 52.714844 41.015625 48.503906 C 47.175781 44.945312 50.515625 38.433594 50.28125 31.8125 Z M 50.28125 31.8125 "/>
<path style="fill:none;stroke-width:11.338583;stroke-linecap:round;stroke-linejoin:round;stroke:rgb(12.941177%,12.941177%,12.941177%);stroke-opacity:1;stroke-miterlimit:4;" d="M 957.782602 379.570072 C 863.42153 380.042468 767.879467 404.370855 680.013838 455.153409 C 459.523071 582.464093 358.430357 834.959679 414.999761 1069.976619 C 425.038173 1133.513862 548.923987 1108.122584 524.713699 1006.675574 C 497.905235 832.5977 577.858233 652.614878 740.008112 559.080498 C 902.15799 465.428019 1097.966073 486.095338 1235.19707 596.399771 C 1311.016605 668.085842 1394.984969 573.488572 1345.029107 532.980627 C 1239.566732 432.832705 1100.209954 378.979577 957.782602 379.570072 Z M 1462.18328 775.5559 C 1424.982106 774.729207 1379.750203 808.505511 1395.221167 873.578041 C 1422.147731 1047.655914 1342.194732 1227.520637 1180.044854 1321.173116 C 1017.776876 1414.825595 822.086892 1394.040177 684.737796 1283.735745 C 608.918261 1212.049673 525.067996 1306.646944 574.905759 1347.154889 C 750.164623 1513.674429 1019.548361 1552.410889 1240.039128 1425.100205 C 1460.529894 1297.789521 1561.622608 1045.175836 1505.053204 810.158897 C 1501.392136 787.365797 1483.086797 776.028296 1462.18328 775.5559 Z M 1462.18328 775.5559 " transform="matrix(0.0330761,0,0,0.0330761,0,0)"/>
</g>
</svg>
